X:1
T:Title
%%score { ( 1 4 5 ) | ( 2 3 6 ) }
L:1/8
M:4/4
K:G
V:1 treble nm="Grand Piano"
V:4 treble 
V:5 treble 
V:2 bass 
V:3 bass 
V:6 bass 
V:1
 z4 z2[Q:1/4=100] E2 | E3 [EG] [Ec]2 E2 | E2 D4 DE | =F3 B A2 F2 |[M:3/4] E6 |[M:1/4] E[D=F] | %6
[M:4/4] [EG]2 [Ge]2 [Gd]2 [Gc]2 | [GB]2 A4 AA | G3 E E2 [B,D]2 |[M:3/4] C6 |[M:1/4] [B,D][B,D] | %11
[M:4/4] [B,D]2 [B,G]2 [CF]2 [DG]2 | [EA]2 c2 B2 BB | d2 AB c2 D2 |[M:3/4] [DB]6 | %15
[M:1/4] [B,D][B,D] |[M:4/4] [B,D]2 [B,G]2 [CF]2 [DG]2 | A2 z2 z4 | d2 AB c2 BA |[M:3/4] [B,G]6 | %20
[M:1/4] [EG]>[EG] |[M:4/4] [Ge]6 z2 | [GB]4 [=FA]2 z2 | G3 c z4 | [Gd]6 z2 | [Ge]6 z2 | %26
 [Ad]4 [=FA]2 z2 | [EG]3 c z4 |[M:7/8] c-c-c- c- c3 |] %29
V:2
 z4 z2 [C,G,C]2 | [C,G,C]3 [C,C] [C,G,]2 [E,G,C]2 | [G,C]2 [G,B,]4[K:treble] B,C | %3
 [G,B,D]3 [G,=F] [G,B,F]2[K:bass] [G,D]2 |[M:3/4] [C,G,C]6 |[M:1/4] [C,G,C][C,G,] | %6
[M:4/4] [C,C]2 [C,C]2 [D,B,]2 [E,C]2 | [=F,C]2 [F,C=F]4 [^F,C^D][F,CD] | %8
 [G,CE]3 [G,C] [G,C]2 [G,,=F,]2 |[M:3/4] [C,E,]6 |[M:1/4] [G,,G,][G,,G,] | %11
[M:4/4] [G,,G,]2 [G,,D,]2 [A,,D,]2 [B,,G,]2 | [C,G,]2 [D,F,D]2 [G,D]2 [G,D][G,D] | %13
 [D,F,D]2 [D,D]-[D,G,D] [D,A,D]2 [D,F,]2 |[M:3/4] [G,,G,]6 |[M:1/4] [G,,G,][G,,G,] | %16
[M:4/4] [G,,G,]2 [G,,D,]2 [A,,D,]2 [B,,G,]2 | [C,E,]4 [B,,F,]2 [G,,G,][A,,G,] | %18
 [D,F,D]2 [D,D]-[D,G,D] [D,A,D]2 [G,D][F,C] |[M:3/4] [G,,G,]6 |[M:1/4] [C,G,]>[C,C] | %21
[M:4/4] [C,C]>C, C,>C, C,>[C,C] [D,B,]>[E,C] | [=F,C]>F, F,>F, F,>F, [F,C=F]2 | z2 z G z4 | %24
 [G,B,]>G, G,>G, G,>=F, E,>D, | [C,C]>C, C,>C, C,>[C,C] [D,B,]>[E,C] | [=F,C]>F, F,>F, F,>F, ^F,2 | %27
 z2 z E z4 |[M:7/8] [C,G,]>[C,G,][C,A,]>[C,A,] [C,G,]3 |] %29
V:3
 x8 | x8 | z4 z2[K:treble] G,2 | x6[K:bass] x2 |[M:3/4] x6 |[M:1/4] x2 |[M:4/4] x8 | x8 | x8 | %9
[M:3/4] x6 |[M:1/4] x2 |[M:4/4] x8 | x8 | z2 .F,2 z4 |[M:3/4] x6 |[M:1/4] x2 |[M:4/4] x8 | x8 | %18
 z2 .F,2 z2 D,2 |[M:3/4] x6 |[M:1/4] x2 |[M:4/4] x8 | x8 | [E,C]>E, z z/ E,/ [D,G,]2 [C,G,]2 | x8 | %25
 x8 | x8 | G,>G, z z/ A,/ [G,D]2 [G,,G,]2 |[M:7/8] x7 |] %29
V:4
 x8 | x8 | x8 | x8 |[M:3/4] x6 |[M:1/4] x2 |[M:4/4] x8 | x8 | x8 |[M:3/4] x6 |[M:1/4] x2 | %11
[M:4/4] x8 | x8 | x8 |[M:3/4] x6 |[M:1/4] x2 |[M:4/4] x8 | E2- [E_B]2 [^D=B]2 [=DB][DB] | x8 | %19
[M:3/4] x6 |[M:1/4] x2 |[M:4/4] z z/ C/ C>C C>[Ge] [Gd]>[Gc] | z z/ C/ C>C C>C A2 | %23
 z z/ C/ z z/ C/ [=FB]2 [Ec]2 | z z/ B,/ B,>B, B,2 [CG]>[B,G] | z z/ C/ C>C C>[Ge] [Gd]>[Gc] | %26
 z z/ C/ C>C C>C [C^DA]2 | C>C z z/ C/ B2 [=Fd]2 |[M:7/8] E>E=F>F E3 |] %29
V:5
 x8 | x8 | x8 | x8 |[M:3/4] x6 |[M:1/4] x2 |[M:4/4] x8 | x8 | x8 |[M:3/4] x6 |[M:1/4] x2 | %11
[M:4/4] x8 | x8 | x8 |[M:3/4] x6 |[M:1/4] x2 |[M:4/4] x8 | x8 | x8 |[M:3/4] x6 |[M:1/4] x2 | %21
[M:4/4] x8 | x8 | z2 C2 z4 | x8 | x8 | x8 | z2 C2 z4 |[M:7/8] x7 |] %29
V:6
 x8 | x8 | x6[K:treble] x2 | x6[K:bass] x2 |[M:3/4] x6 |[M:1/4] x2 |[M:4/4] x8 | x8 | x8 | %9
[M:3/4] x6 |[M:1/4] x2 |[M:4/4] x8 | x8 | x8 |[M:3/4] x6 |[M:1/4] x2 |[M:4/4] x8 | x8 | x8 | %19
[M:3/4] x6 |[M:1/4] x2 |[M:4/4] x8 | x8 | z2 E,2 z4 | x8 | x8 | x8 | z2 G,2 z4 |[M:7/8] x7 |] %29

